icon-themes/sifr_svg/cmd/sc_downsearch.svg

<svg viewBox="0 0 16 16" xmlns="http://www.w3.org/2000/svg"><path d="m8 1c-.5522847 0-1 .4477153-1 1s.4477153 1 1 1 1-.4477153 1-1-.4477153-1-1-1zm0 4c-.5522847 0-1 .4477153-1 1s.4477153 1 1 1 1-.4477153 1-1-.4477153-1-1-1zm-6 2v.4140625.5859375c0 .30945.0903.55232.28125.75 1.073 1.41667 4.64575 4.83333 5.71875 6.25l5.71875-6.25c.19095-.19768.28125-.44055.28125-.75v-.5859375-.4140625h-1c-.25689 0-.52846.12983-.71875.3125l-4.28125 4.6875-4.28125-4.6875c-.19029-.18267-.97564-.3125-.71875-.3125z" fill="#555753"/></svg>

<svg xmlns="http://www.w3.org/2000/svg" viewBox="0 0 16 16">
  <path
     style="fill:#555753"
     d="M 8,1 C 7.4477153,1 7,1.4477153 7,2 7,2.5522847 7.4477153,3 8,3 8.5522847,3 9,2.5522847 9,2 9,1.4477153 8.5522847,1 8,1 Z M 8,5 C 7.4477153,5 7,5.4477153 7,6 7,6.5522847 7.4477153,7 8,7 8.5522847,7 9,6.5522847 9,6 9,5.4477153 8.5522847,5 8,5 Z M 2,7 V 7.4140625 8 C 2,8.30945 2.0903,8.55232 2.28125,8.75 3.35425,10.16667 6.927,13.58333 8,15 L 13.71875,8.75 C 13.9097,8.55232 14,8.30945 14,8 V 7.4140625 7 H 13 C 12.74311,7 12.47154,7.12983 12.28125,7.3125 L 8,12 3.71875,7.3125 C 3.52846,7.12983 2.74311,7 3,7 Z"
     />
</svg>
